components/Common/Svg/svgs/cunsulting.svg

<svg width="40" height="40" viewBox="0 0 40 40" fill="none" xmlns="http://www.w3.org/2000/svg">
<path fill-rule="evenodd" clip-rule="evenodd" d="M27.1797 11.25C26.9648 9.69654 26.2461 8.24537 25.125 7.12354C24.2266 6.22657 23.1211 5.58887 21.918 5.2588C21.2969 5.08839 20.6523 5.00001 20 5.00001C18.0781 5.00001 16.2344 5.76392 14.875 7.12354C13.7539 8.24537 13.0352 9.69654 12.8203 11.25H6.25C5.00781 11.25 4 12.2573 4 13.5V33.5C4 34.7427 5.00781 35.75 6.25 35.75H33.75C34.1914 35.75 34.6016 35.6228 34.9492 35.4033C35.582 35.0046 36 34.3013 36 33.5V13.5C36 12.2573 34.9922 11.25 33.75 11.25H27.1797ZM20 7.00001C18.6094 7.00001 17.2734 7.55323 16.2891 8.53761C15.8984 8.92847 15.5742 9.37452 15.3281 9.85743C15.1055 10.2959 14.9414 10.7647 14.8477 11.25H25.1523C24.9531 10.2297 24.457 9.28321 23.7109 8.53761C22.7266 7.55323 21.3906 7.00001 20 7.00001ZM6.25 13.25C6.19531 13.25 6.14844 13.2666 6.10938 13.2952C6.04297 13.3403 6 13.4153 6 13.5V17.5H34V13.5C34 13.3618 33.8867 13.25 33.75 13.25H6.25ZM34 19.5H6V33.5L6.00391 33.5469C6.02344 33.6626 6.12891 33.75 6.25 33.75H33.75C33.8867 33.75 34 33.6382 34 33.5V19.5Z" fill="#161616"/>
</svg>

<svg width="40" height="40" viewBox="0 0 40 40" fill="none" xmlns="http://www.w3.org/2000/svg"><path fill-rule="evenodd" clip-rule="evenodd" d="M27.18 11.25a7.246 7.246 0 0 0-5.262-5.991 7.247 7.247 0 0 0-9.098 5.991H6.25A2.25 2.25 0 0 0 4 13.5v20a2.25 2.25 0 0 0 2.25 2.25h27.5c.441 0 .852-.127 1.2-.347A2.245 2.245 0 0 0 36 33.5v-20a2.25 2.25 0 0 0-2.25-2.25h-6.57ZM20 7a5.25 5.25 0 0 0-5.152 4.25h10.304A5.25 5.25 0 0 0 20 7ZM6.25 13.25a.233.233 0 0 0-.14.045.247.247 0 0 0-.11.205v4h28v-4a.25.25 0 0 0-.25-.25H6.25ZM34 19.5H6v14l.004.047a.25.25 0 0 0 .246.203h27.5a.25.25 0 0 0 .25-.25v-14Z" fill="#161616"/></svg>
